X:221
T:Black Haired Lass, The
R:reel
Z:Transcribed by Dave Marshall
M:C|
K:Amix
|: c2AB cdec | d2gd BGGB | cBAB cdec | dgec A2AB :|
| cdef g2eg | f2df gfed | cdef g2ag | fdec A2AB |
| cdef g2eg | f2dc defg | afge fdec | dfec A4 |
